X:1
T:Title
%%score [ ( 1 2 ) ( 3 4 ) ]
L:1/8
Q:1/4=120
M:4/4
K:F
V:1 treble nm="Midi_74"
V:2 treble 
V:3 bass nm="Midi_74"
V:4 bass 
V:1
 A8 | B4 B4 | A8 || F8 | E4 G4 | %5
 F4"^William Felton\n(1715-1769)""^William Felton\n(1715-1769)""^John Goss\n(1800-1880)" E4 | D8 |] %7
V:2
 C8 | ^C4 D4 | E8 || D8 | D4 D4 | D4 ^C4 | D8 |] %7
V:3
 A,8 | G,4 F,4 | E,8 || A,8 | B,4 G,4 | A,4 G,4 | F,8 |] %7
V:4
 F,8 | E,4 D,4 | ^C,8 || D,8 | G,,4 B,,4 | A,,4 A,,4 | D,8 |] %7

